X: 1
T:Calum Donaldson
M:4/4
L:1/8
Q:180
C:Ronald Cooper
R:March
K:A
E2|"A"EAAG "E7"ABcd|"A"eAcA eAcA|
"Bm"Bffe f3 g|"E7"afec BdcB|!
"A"EAAG "E7"ABcd|"A"eAcA eAcA|
"F#m"Bffe "D"fgaf|"E7"ecBc "A"A2:|!
"A"e2|agab agfe|fedc dcBA|
"Bm"Bffe f3 g|"E7"afec Befg|!
"A"agab agfe|fedc dcBA|
"F#m"Bffe "D"fgaf|"E7"ecBc "A"A2"E7"e2|!
"A"agab agfe|fedc dcBA|
"Bm"Bffe f3 g|"E7"afec BdcB|!
"A"EAAG "E7"ABcd|"A"eAcA eAcA|
"F#m"Bffe "D"fgaf|"E7"ecBc "A"A2||
